X: 20731
Q: "Larghetto"
M: 2/4
L: 1/8
K: Bb
{Ac}B>A B>c | d>d f>{=e_e}d | {d}c>B c>d | B2 zf |
f>A A>c | c>B {ABc}Bz/G/ | F<B (Bc/d/) | {=B}c2 zF |\


